assets/Lady beetle/Flat/lady_beetle_flat.svg

<svg width="32" height="32" viewBox="0 0 32 32" fill="none" xmlns="http://www.w3.org/2000/svg">
<path d="M13.5704 1.74986C13.4322 1.51079 13.1264 1.42901 12.8873 1.5672C12.6482 1.70539 12.5664 2.01123 12.7046 2.25031L14.1336 4.7224C11.3473 5.49473 9.2609 7.95628 9.05434 10.9418L7.8275 9.70992C7.6175 9.49992 7.4975 9.21992 7.4975 8.91992V6.91992C7.4975 6.49992 7.1575 6.16992 6.7475 6.16992C6.3375 6.16992 5.9975 6.49992 5.9975 6.91992V8.91992C5.9975 9.61992 6.2675 10.2799 6.7675 10.7799L9.2175 13.2299C9.24008 13.251 9.26356 13.2707 9.28781 13.289C10.014 15.9226 12.2457 17.9281 14.9975 18.3201V29.4201C15.3275 29.4501 15.6575 29.4701 15.9975 29.4701C16.3375 29.4701 16.6675 29.4501 16.9975 29.4201V18.3201C19.7434 17.9289 21.9714 15.9312 22.7025 13.3059C22.7284 13.2859 22.7535 13.264 22.7775 13.2399L25.2275 10.7899C25.7275 10.2899 25.9975 9.62993 25.9975 8.92993V6.92993C25.9975 6.51993 25.6575 6.17993 25.2475 6.17993C24.8375 6.17993 24.4975 6.51993 24.4975 6.92993V8.92993C24.4975 9.23993 24.3775 9.51993 24.1675 9.72993L22.9416 10.9558C22.7367 7.90537 20.5695 5.39942 17.6966 4.67889L19.1004 2.25031C19.2386 2.01123 19.1568 1.70539 18.9177 1.5672C18.6787 1.42901 18.3728 1.51079 18.2346 1.74986L16.6451 4.49978C16.4318 4.48011 16.2158 4.47005 15.9975 4.47005C15.7178 4.47005 15.442 4.48655 15.1708 4.51863L13.5704 1.74986Z" fill="#212121"/>
<path d="M28.7175 16.16C28.8675 16.31 29.0575 16.38 29.2475 16.38C29.4375 16.38 29.6275 16.3 29.7775 16.16C30.0675 15.87 30.0675 15.39 29.7775 15.1L29.1075 14.43C28.4875 13.81 27.6675 13.47 26.7875 13.47H25.0375C24.6275 13.47 24.2875 13.81 24.2875 14.22C24.2875 14.63 24.6275 14.97 25.0375 14.97H26.7875C27.2575 14.97 27.7075 15.15 28.0475 15.49L28.7175 16.16Z" fill="#212121"/>
<path d="M27.2475 29.4401C26.8375 29.4401 26.4975 29.1001 26.4975 28.6901V26.6001C26.4975 25.9801 26.2575 25.4001 25.8175 24.9601L23.2575 22.4001C22.9675 22.1101 22.9675 21.6301 23.2575 21.3401C23.5475 21.0501 24.0275 21.0501 24.3175 21.3401L26.8775 23.9001C27.5975 24.6201 27.9975 25.5801 27.9975 26.6001V28.6901C27.9975 29.1001 27.6575 29.4401 27.2475 29.4401Z" fill="#212121"/>
<path d="M5.4975 28.67C5.4975 29.08 5.1575 29.42 4.7475 29.42C4.3375 29.42 3.9975 29.08 3.9975 28.67V26.58C3.9975 25.56 4.3975 24.6 5.1175 23.88L7.6775 21.32C7.9675 21.03 8.4475 21.03 8.7375 21.32C9.0275 21.61 9.0275 22.09 8.7375 22.38L6.1775 24.94C5.7375 25.38 5.4975 25.96 5.4975 26.58V28.67Z" fill="#212121"/>
<path d="M3.2775 16.14C3.1275 16.29 2.9375 16.36 2.7475 16.36C2.5575 16.36 2.3675 16.28 2.2175 16.14C1.9275 15.85 1.9275 15.37 2.2175 15.08L2.8875 14.41C3.5075 13.79 4.3275 13.45 5.2075 13.45H6.9575C7.3675 13.45 7.7075 13.79 7.7075 14.2C7.7075 14.61 7.3675 14.95 6.9575 14.95H5.2075C4.7375 14.95 4.2875 15.13 3.9475 15.47L3.2775 16.14Z" fill="#212121"/>
<path d="M15.5 9.45996H9.31751C9.31751 9.46496 9.31501 9.46746 9.31251 9.46996C9.31001 9.47246 9.30751 9.47496 9.30751 9.47996C8.30728 10.2348 7.43977 11.1541 6.74458 12.1974L8 15L5.00752 16.7106C4.92845 17.2457 4.88751 17.7931 4.88751 18.35C4.88751 24.15 9.32751 28.91 14.9975 29.42C15.1646 29.4351 15.3316 29.4478 15.5 29.4565V9.45996Z" fill="#F8312F"/>
<path d="M16.5 29.4563C16.6667 29.4475 16.8321 29.435 16.9975 29.42C22.6675 28.91 27.1075 24.15 27.1075 18.35C27.1075 17.802 27.0679 17.2634 26.9913 16.7368L24 15L25.2531 12.2009C24.5564 11.1543 23.6874 10.2336 22.6875 9.47996V9.45996H16.5V29.4563Z" fill="#F8312F"/>
<path d="M19.8975 14.92C19.8975 17.0739 18.1514 18.82 15.9975 18.82C13.8436 18.82 12.0975 17.0739 12.0975 14.92C12.0975 12.7661 13.8436 11.02 15.9975 11.02C18.1514 11.02 19.8975 12.7661 19.8975 14.92Z" fill="#212121"/>
<path d="M12.8875 22.0699C12.8875 23.528 11.7055 24.7099 10.2475 24.7099C8.78948 24.7099 7.60751 23.528 7.60751 22.0699C7.60751 20.6119 8.78948 19.4299 10.2475 19.4299C11.7055 19.4299 12.8875 20.6119 12.8875 22.0699Z" fill="#212121"/>
<path d="M6.8175 12.1899H6.7475C5.8475 13.5299 5.2375 15.0799 4.9975 16.7399C5.4675 17.1899 6.1075 17.4599 6.8175 17.4599C8.2775 17.4599 9.4575 16.2799 9.4575 14.8199C9.4575 13.3599 8.2775 12.1899 6.8175 12.1899Z" fill="#212121"/>
<path d="M25.2375 12.1899C26.1375 13.5299 26.7475 15.0699 26.9875 16.7399C26.5175 17.1899 25.8775 17.4599 25.1675 17.4699C23.7075 17.4699 22.5275 16.2899 22.5275 14.8299C22.5275 13.3699 23.7075 12.1899 25.1675 12.1899H25.2375Z" fill="#212121"/>
<path d="M21.7475 24.7099C23.2055 24.7099 24.3875 23.528 24.3875 22.0699C24.3875 20.6119 23.2055 19.4299 21.7475 19.4299C20.2895 19.4299 19.1075 20.6119 19.1075 22.0699C19.1075 23.528 20.2895 24.7099 21.7475 24.7099Z" fill="#212121"/>
<path d="M17.4575 26.16C17.4575 26.9663 16.8038 27.62 15.9975 27.62C15.1912 27.62 14.5375 26.9663 14.5375 26.16C14.5375 25.3536 15.1912 24.7 15.9975 24.7C16.8038 24.7 17.4575 25.3536 17.4575 26.16Z" fill="#212121"/>
</svg>

<svg xmlns="http://www.w3.org/2000/svg" width="32" height="32" fill="none"><path fill="#212121" d="M13.57 1.75a.5.5 0 0 0-.865.5l1.429 2.472a6.962 6.962 0 0 0-5.08 6.22L7.827 9.71c-.21-.21-.33-.49-.33-.79v-2a.749.749 0 1 0-1.5 0v2c0 .7.27 1.36.77 1.86l2.45 2.45c.023.021.047.04.07.059a6.956 6.956 0 0 0 5.71 5.031v11.1c.33.03.66.05 1 .05.34 0 .67-.02 1-.05v-11.1a6.956 6.956 0 0 0 5.706-5.014.769.769 0 0 0 .075-.066l2.45-2.45c.5-.5.77-1.16.77-1.86v-2c0-.41-.34-.75-.75-.75s-.75.34-.75.75v2c0 .31-.12.59-.33.8l-1.226 1.226a6.962 6.962 0 0 0-5.245-6.277L19.1 2.25a.5.5 0 1 0-.865-.5l-1.59 2.75a7.05 7.05 0 0 0-1.474.019l-1.6-2.77ZM28.718 16.16c.15.15.34.22.53.22s.38-.08.53-.22c.29-.29.29-.77 0-1.06l-.67-.67c-.62-.62-1.44-.96-2.32-.96h-1.75c-.41 0-.75.34-.75.75s.34.75.75.75h1.75c.47 0 .92.18 1.26.52l.67.67ZM27.247 29.44c-.41 0-.75-.34-.75-.75V26.6c0-.62-.24-1.2-.68-1.64l-2.56-2.56a.754.754 0 0 1 0-1.06c.29-.29.77-.29 1.06 0l2.56 2.56c.72.72 1.12 1.68 1.12 2.7v2.09c0 .41-.34.75-.75.75ZM5.497 28.67c0 .41-.34.75-.75.75s-.75-.34-.75-.75v-2.09c0-1.02.4-1.98 1.12-2.7l2.56-2.56c.29-.29.77-.29 1.06 0 .29.29.29.77 0 1.06l-2.56 2.56a2.3 2.3 0 0 0-.68 1.64v2.09ZM3.277 16.14c-.15.15-.34.22-.53.22s-.38-.08-.53-.22a.754.754 0 0 1 0-1.06l.67-.67c.62-.62 1.44-.96 2.32-.96h1.75c.41 0 .75.34.75.75s-.34.75-.75.75h-1.75c-.47 0-.92.18-1.26.52l-.67.67Z"/><path fill="#F8312F" d="M15.5 9.46H9.318c0 .005-.003.007-.005.01-.003.002-.005.005-.005.01-1 .755-1.868 1.674-2.563 2.717L8 15l-2.992 1.71a11.21 11.21 0 0 0-.12 1.64c0 5.8 4.44 10.56 10.11 11.07.167.015.334.028.502.036V9.46ZM16.5 29.456c.167-.008.332-.021.497-.036 5.67-.51 10.11-5.27 10.11-11.07 0-.548-.04-1.087-.116-1.613L24 15l1.253-2.8a11.137 11.137 0 0 0-2.566-2.72v-.02H16.5v19.996Z"/><path fill="#212121" d="M19.898 14.92a3.9 3.9 0 1 1-7.8 0 3.9 3.9 0 0 1 7.8 0ZM12.887 22.07a2.64 2.64 0 1 1-5.28 0 2.64 2.64 0 0 1 5.28 0ZM6.817 12.19h-.07c-.9 1.34-1.51 2.89-1.75 4.55.47.45 1.11.72 1.82.72 1.46 0 2.64-1.18 2.64-2.64 0-1.46-1.18-2.63-2.64-2.63ZM25.238 12.19c.9 1.34 1.51 2.88 1.75 4.55-.47.45-1.11.72-1.82.73-1.46 0-2.64-1.18-2.64-2.64 0-1.46 1.18-2.64 2.64-2.64h.07ZM21.747 24.71a2.64 2.64 0 1 0 0-5.28 2.64 2.64 0 0 0 0 5.28ZM17.457 26.16a1.46 1.46 0 1 1-2.92 0 1.46 1.46 0 0 1 2.92 0Z"/></svg>
